X:1
T:French Suite IV Menuet
T:BWV 815
T:J. S. Bach
%%score { 1 | 2 }
L:1/8
Q:1/4=184
M:3/4
K:Eb
V:1 treble nm="Harp"
V:2 bass 
V:1
"^Presto" GB e_d dc | ce Be Af | A/4G/4A/4G/4A/4G/4A/4G/4 A/4G/4A/4G/4A/4G/4A/4G/4 GA/B/ | %3
 B/4A/4B/4A/4B/4A/4B/4A/4 G2 c2 | Be gf fe | =Ac ed dc | cb db e=a | b2 B4 | GB e_d dc | ce Be Af | %10
 A/4G/4A/4G/4A/4G/4A/4G/4 A/4G/4A/4G/4A/4G/4A/4G/4 GA/B/ | B/4A/4B/4A/4B/4A/4B/4A/4 G2 c2 | %12
 Be gf fe | =Ac ed dc | cb db e=a | b2 B4 | de/f/ AG GA | %17
 Af e/4d/4e/4d/4e/4d/4e/4d/4 e/4d/4e/4d/4e/4d/4e/4d/4 | ef/g/ Bc c_d | %19
 _db a/4g/4a/4g/4a/4g/4a/4g/4 a/4g/4a/4g/4a/4g/4a/4g/4 | af de ef | fA AG GB | %22
 eG A/4G/4A3/2 G/4F/4G/4F/4G/4F/4G/4F/4 | E6 | de/f/ AG GA | %25
 Af e/4d/4e/4d/4e/4d/4e/4d/4 e/4d/4e/4d/4e/4d/4e/4d/4 | ef/g/ Bc c_d | %27
 _db a/4g/4a/4g/4a/4g/4a/4g/4 a/4g/4a/4g/4a/4g/4a/4g/4 | af de ef | fA AG GB | %30
 eG A/4G/4A3/2 G/4F/4G/4F/4G/4F/4G/4F/4 | !fermata!E6 |] %32
V:2
 E,F, G,2 E,2 | A,2 G,2 F,2 | E,B, E_D DC | CE B,E A,F | G,B, E2 D2 | C=A, F,2 B,2 | E,2 F,2 F,,2 | %7
 B,,F, B,A, G,F, | E,F, G,2 E,2 | A,2 G,2 F,2 | E,B, E_D DC | CE B,E A,F | G,B, E2 D2 | %13
 C=A, F,2 B,2 | E,2 F,2 F,,2 | B,,6 | B,,C, D,2 E,2 | B,,A, C,A, B,,A, | G,B, _D2 F,2 | %19
 =E,G, B,A, A,G, | F,2 F2 E2 | D2 B,2 E2 | G,C B,G, A,B, | E,A, G,E, F,G, | B,,C, D,2 E,2 | %25
 B,,A, C,A, B,,A, | G,B, _D2 F,2 | =E,G, B,A, A,G, | F,2 F2 E2 | D2 B,2 E2 | G,C B,G, A,B, | %31
 !fermata!E,6 |] %32

